static/img/common/monitoring-map-camera-icon.svg

<svg width="45" height="45" viewBox="0 0 45 45" fill="none" xmlns="http://www.w3.org/2000/svg">
<circle cx="22.5" cy="22.5" r="22.5" fill="#3E66FF"/>
<path d="M30.0266 16.0266C30.0847 15.6191 30.0472 15.2036 29.917 14.8131C29.7868 14.4226 29.5675 14.0678 29.2764 13.7768C28.9854 13.4857 28.6305 13.2664 28.24 13.1362C27.8495 13.006 27.4341 12.9684 27.0266 13.0266H11.0266C10.6191 12.9684 10.2036 13.006 9.81314 13.1362C9.42265 13.2664 9.06782 13.4857 8.77675 13.7768C8.48569 14.0678 8.26637 14.4226 8.13617 14.8131C8.00596 15.2036 7.96845 15.6191 8.02659 16.0266V30.0266C7.96845 30.4341 8.00596 30.8495 8.13617 31.24C8.26637 31.6305 8.48569 31.9854 8.77675 32.2764C9.06782 32.5675 9.42265 32.7868 9.81314 32.917C10.2036 33.0472 10.6191 33.0847 11.0266 33.0266H27.0266C27.4341 33.0847 27.8495 33.0472 28.24 32.917C28.6305 32.7868 28.9854 32.5675 29.2764 32.2764C29.5675 31.9854 29.7868 31.6305 29.917 31.24C30.0472 30.8495 30.0847 30.4341 30.0266 30.0266V16.0266ZM32.0266 19.3766V26.7766L36.5766 29.4266C36.841 29.6099 37.1264 29.7609 37.4266 29.8766C37.6637 29.9773 37.919 30.0284 38.1766 30.0266C38.4304 29.9979 38.6813 29.9477 38.9266 29.8766C39.2855 29.7288 39.5867 29.4686 39.7851 29.135C39.9834 28.8014 40.0682 28.4125 40.0266 28.0266V18.0266C40.0682 17.6407 39.9834 17.2518 39.7851 16.9182C39.5867 16.5846 39.2855 16.3244 38.9266 16.1766C38.6813 16.1054 38.4304 16.0553 38.1766 16.0266C37.919 16.0248 37.6637 16.0758 37.4266 16.1766C37.1264 16.2923 36.841 16.4433 36.5766 16.6266L33.0266 18.7266V18.7766L32.0266 19.3766Z" fill="white"/>
</svg>

<svg xmlns="http://www.w3.org/2000/svg" width="45" height="45" fill="none" viewBox="0 0 45 45"><circle cx="22.5" cy="22.5" r="22.5" fill="#3e66ff"/><path fill="#fff" d="M30.027 16.027a2.653 2.653 0 0 0-3-3h-16a2.65 2.65 0 0 0-3 3v14a2.652 2.652 0 0 0 3 3h16a2.652 2.652 0 0 0 3-3zm2 3.35v7.4l4.55 2.65q.398.275.85.45c.237.1.492.151.75.15q.38-.045.75-.15a1.79 1.79 0 0 0 1.1-1.85v-10a1.79 1.79 0 0 0-1.1-1.85 4.5 4.5 0 0 0-.75-.15 1.9 1.9 0 0 0-.75.15q-.452.173-.85.45l-3.55 2.1v.05z"/></svg>
